public/assets/icons/card_queen.svg

<svg xmlns="http://www.w3.org/2000/svg" viewBox="0 0 128 128"><path d="M64 43c-6.1 0-11-4.9-11-11s4.9-11 11-11 11 4.9 11 11S70.1 43 64 43zM64 27c-2.8 0-5 2.2-5 5s2.2 5 5 5 5-2.2 5-5S66.8 27 64 27zM110.7 99.4C117.6 94.3 122 86.2 122 77c0-15.4-12.6-28-28-28-5.4 0-10.5 1.5-15 4.4-4.5-2.9-9.6-4.4-15-4.4s-10.5 1.5-15 4.4c-4.5-2.9-9.6-4.4-15-4.4C18.6 49 6 61.6 6 77c0 9.2 4.4 17.3 11.3 22.4-3.6 1.2-6.3 4.6-6.3 8.6 0 5 4 9 9 9h88c5 0 9-4 9-9C117 104 114.4 100.6 110.7 99.4zM82 58l.1 0c1.1-.4 2.4 0 3.1.9C89.5 63.8 92 70.1 92 77c0 1.7-1.4 3.1-3.2 3-1.6-.1-2.8-1.5-2.8-3.1 0-5.4-2-10.3-5.2-14.1C79.4 61.2 80 58.7 82 58zM42.7 58.9c.8-.9 2-1.3 3.2-.9h0c2 .6 2.8 3.1 1.4 4.8C44 66.6 42 71.6 42 77c0 1.8-1.7 3.3-3.6 2.9C37 79.7 36 78.3 36 76.8 36 70 38.5 63.7 42.7 58.9zM108 111H20c-1.7 0-3-1.3-3-3s1.3-3 3-3h14 60 14c1.7 0 3 1.3 3 3S109.7 111 108 111z"></path></svg>

<svg xmlns="http://www.w3.org/2000/svg" xmlns:xlink="http://www.w3.org/1999/xlink" version="1.1"  viewBox="192 201 116 97" xml:space="preserve">
<g transform="matrix(1 0 0 1 250 250)"  >
<path style="stroke: none; stroke-width: 1; stroke-dasharray: none; stroke-linecap: butt; stroke-dashoffset: 0; stroke-linejoin: miter; stroke-miterlimit: 4; fill: rgb(0,0,0); fill-rule: nonzero; opacity: 1;" vector-effect="non-scaling-stroke"  transform=" translate(-64, -69)" d="M 64 43 C 57.9 43 53 38.1 53 32 C 53 25.9 57.9 21 64 21 C 70.1 21 75 25.9 75 32 C 75 38.1 70.1 43 64 43 z M 64 27 C 61.2 27 59 29.2 59 32 C 59 34.8 61.2 37 64 37 C 66.8 37 69 34.8 69 32 C 69 29.200000000000003 66.8 27 64 27 z M 110.7 99.4 C 117.6 94.3 122 86.2 122 77 C 122 61.6 109.4 49 94 49 C 88.6 49 83.5 50.5 79 53.4 C 74.5 50.5 69.4 49 64 49 C 58.599999999999994 49 53.5 50.5 49 53.4 C 44.5 50.5 39.4 49 34 49 C 18.6 49 6 61.6 6 77 C 6 86.2 10.4 94.3 17.3 99.4 C 13.700000000000001 100.60000000000001 11 104 11 108 C 11 113 15 117 20 117 L 108 117 C 113 117 117 113 117 108 C 117 104 114.4 100.6 110.7 99.4 z M 82 58 L 82.1 58 C 83.19999999999999 57.6 84.5 58 85.19999999999999 58.9 C 89.5 63.8 92 70.1 92 77 C 92 78.7 90.6 80.1 88.8 80 C 87.2 79.9 86 78.5 86 76.9 C 86 71.5 84 66.60000000000001 80.8 62.800000000000004 C 79.4 61.2 80 58.7 82 58 z M 42.7 58.9 C 43.5 58 44.7 57.6 45.900000000000006 58 L 45.900000000000006 58 C 47.900000000000006 58.6 48.7 61.1 47.300000000000004 62.8 C 44 66.6 42 71.6 42 77 C 42 78.8 40.3 80.3 38.4 79.9 C 37 79.7 36 78.3 36 76.8 C 36 70 38.5 63.7 42.7 58.9 z M 108 111 L 20 111 C 18.3 111 17 109.7 17 108 C 17 106.3 18.3 105 20 105 L 34 105 L 94 105 L 108 105 C 109.7 105 111 106.3 111 108 C 111 109.7 109.7 111 108 111 z" stroke-linecap="round" />
</g>
</svg>
